img/svg/products-decoration-mob-2.svg

<svg width="194" height="376" viewBox="0 0 194 376" fill="none" xmlns="http://www.w3.org/2000/svg">
<g opacity="0.07">
<g clip-path="url(#clip0)">
<path d="M-281.765 -126.619L-277.62 -128.098L-265.146 -90.767L-288.227 -21.1339L-265.023 48.5407L-288.104 118.174L-265.033 187.983L-287.98 257.751L-264.776 327.426L-287.857 397.059L-264.653 466.733L-277.061 504.041L-281.209 502.556L-269.469 466.729L-292.405 397.055L-269.592 327.421L-292.662 257.612L-269.581 187.979L-292.785 118.304L-269.838 48.5363L-292.775 -21.138L-269.962 -90.7713L-281.765 -126.619Z" fill="#B69D6D"/>
<path d="M-262.386 -146.137L-258.24 -147.616L-239.194 -90.7437L-262.275 -21.1106L-239.071 48.564L-262.152 118.197L-239.081 188.006L-262.028 257.774L-238.824 327.449L-261.905 397.082L-238.701 466.756L-257.646 523.594L-261.795 522.109L-243.517 466.752L-266.587 396.943L-243.64 327.444L-266.711 257.635L-243.63 188.002L-266.834 118.328L-243.887 48.5596L-266.957 -20.9801L-244.01 -90.748L-262.386 -146.137Z" fill="#B69D6D"/>
<path d="M-236.859 -173.194L-232.711 -171.709L-236.447 -160.395L-213.243 -90.7204L-236.323 -21.0873L-213.119 48.5873L-236.2 118.22L-213.13 188.03L-236.077 257.798L-212.873 327.472L-235.954 397.105L-212.75 466.78L-235.831 536.413L-232.075 547.733L-236.221 549.212L-240.512 536.544L-217.565 466.776L-240.636 396.966L-217.689 327.468L-240.759 257.659L-217.678 188.026L-240.882 118.351L-217.935 48.583L-241.005 -20.9568L-218.058 -90.7248L-241.129 -160.534L-236.859 -173.194Z" fill="#B69D6D"/>
<path d="M-200.768 -204.149L-196.486 -202.798L-210.495 -160.372L-187.291 -90.6972L-210.372 -21.0641L-187.168 48.6105L-210.248 118.244L-187.178 188.053L-210.125 257.821L-186.921 327.495L-210.002 397.128L-186.798 466.803L-209.879 536.436L-195.795 578.888L-200.075 580.231L-214.561 536.567L-191.614 466.799L-214.684 396.99L-191.737 327.491L-214.807 257.682L-191.726 188.049L-214.93 118.374L-191.983 48.6062L-215.054 -20.9336L-192.107 -90.7015L-215.177 -160.511L-200.768 -204.149Z" fill="#B69D6D"/>
<path d="M-181.22 -184.462L-177.072 -183.245L-184.543 -160.349L-161.339 -90.6739L-184.42 -21.0408L-161.216 48.6338L-184.297 118.267L-161.226 188.076L-184.173 257.844L-160.969 327.519L-184.05 397.152L-160.846 466.826L-183.927 536.459L-176.416 559.37L-180.561 560.579L-188.609 536.59L-165.662 466.822L-188.732 397.013L-165.785 327.514L-188.856 257.705L-165.775 188.072L-188.979 118.397L-166.032 48.6295L-189.102 -20.9103L-166.155 -90.6783L-189.225 -160.488L-181.22 -184.462Z" fill="#B69D6D"/>
<path d="M-161.806 -164.909L-157.524 -163.558L-158.591 -160.325L-135.387 -90.6506L-158.468 -21.0176L-135.264 48.657L-158.345 118.29L-135.275 188.099L-158.222 257.867L-135.018 327.542L-158.099 397.175L-134.894 466.85L-157.975 536.483L-156.902 539.717L-161.182 541.061L-162.657 536.613L-139.71 466.845L-162.781 397.036L-139.833 327.538L-162.904 257.728L-139.823 188.095L-163.027 118.421L-140.08 48.6527L-163.15 -20.887L-140.203 -90.655L-163.274 -160.464L-161.806 -164.909Z" fill="#B69D6D"/>
<path d="M-126.592 -128.097L-122.446 -129.575L-109.436 -90.6273L-132.517 -20.9942L-109.446 48.815L-132.393 118.313L-109.323 188.123L-132.27 257.891L-109.2 327.43L-132.147 397.198L-108.943 466.873L-121.884 505.797L-126.032 504.312L-113.759 466.869L-136.829 397.059L-113.882 327.561L-136.952 257.752L-113.871 188.119L-137.075 118.444L-114.128 48.6761L-137.198 -20.8637L-114.251 -90.6317L-126.592 -128.097Z" fill="#B69D6D"/>
<path d="M-88.1662 -90.743L-83.8843 -89.3919L-106.565 -20.971L-83.4946 48.8382L-106.442 118.337L-83.3714 188.146L-106.318 257.914L-83.2482 327.454L-106.195 397.222L-83.3935 465.683L-87.6731 467.027L-110.877 397.083L-87.9301 327.584L-111.001 257.775L-87.9196 188.142L-111.124 118.467L-88.1767 48.6993L-111.247 -20.8405L-88.1662 -90.743Z" fill="#B69D6D"/>
<path d="M-68.7521 -71.1902L-64.4702 -69.8391L-80.6133 -20.9477L-57.5429 48.8615L-80.4901 118.36L-57.4197 188.169L-80.3667 257.937L-57.2966 327.477L-80.2435 397.245L-64.014 446.165L-68.2935 447.509L-84.9257 397.106L-61.9784 327.607L-85.0488 257.798L-61.968 188.165L-85.172 118.491L-62.225 48.7226L-85.2952 -20.8172L-68.7521 -71.1902Z" fill="#B69D6D"/>
<path d="M-49.204 -51.5026L-44.9221 -50.1514L-54.6616 -20.9244L-31.5912 48.8848L-54.5385 118.383L-31.4681 188.192L-54.415 257.96L-31.3449 327.5L-54.2919 397.268L-44.5007 426.513L-48.7802 427.856L-58.974 397.129L-36.0268 327.631L-59.0972 257.821L-36.0163 188.188L-59.2203 118.514L-36.2733 48.7458L-59.3435 -20.7939L-49.204 -51.5026Z" fill="#B69D6D"/>
<path d="M-29.7899 -31.9498L-25.508 -30.5986L-28.71 -20.9012L-5.63957 48.908L-28.5868 118.407L-5.5164 188.216L-28.4634 257.984L-5.39322 327.523L-28.3402 397.291L-25.1211 406.995L-29.4006 408.338L-33.0223 397.152L-10.0751 327.654L-33.1455 257.845L-10.0646 188.212L-33.2687 118.537L-10.3217 48.7691L-33.3919 -20.7707L-29.7899 -31.9498Z" fill="#B69D6D"/>
<path d="M-1.13609 -1.74523L3.1434 -3.08866L20.3121 48.9313L-2.6351 118.43L20.4353 188.239L-2.5117 258.007L20.5585 327.547L3.4817 379.536L-0.8002 378.185L15.8766 327.677L-7.19382 257.868L15.8871 188.235L-7.31698 118.56L15.63 48.7924L-1.13609 -1.74523Z" fill="#B69D6D"/>
<path d="M37.8261 37.4953L42.1056 36.1518L46.2638 48.9546L23.3166 118.453L46.387 188.262L23.44 258.03L46.5102 327.57L42.3746 340.365L38.0927 339.014L41.8283 327.701L18.7579 257.891L41.8388 188.258L18.6347 118.584L41.5817 48.8157L37.8261 37.4953Z" fill="#B69D6D"/>
<path d="M63.2641 61.7689L67.5459 63.12L49.2682 118.476L72.3386 188.286L49.3916 258.054L67.7673 313.443L63.4878 314.786L44.7095 257.915L67.7904 188.282L44.5863 118.607L63.2641 61.7689Z" fill="#B69D6D"/>
<path d="M82.8121 81.4565L87.094 82.8076L75.2199 118.5L98.2903 188.309L75.3433 258.077L87.2805 293.79L83.001 295.134L70.6612 257.938L93.742 188.305L70.538 118.63L82.8121 81.4565Z" fill="#B69D6D"/>
<path d="M102.226 101.009L106.508 102.36L101.172 118.523L124.242 188.332L101.295 258.1L106.66 274.272L102.381 275.616L96.6128 257.961L119.694 188.328L96.4897 118.653L102.226 101.009Z" fill="#B69D6D"/>
<path d="M124.453 124.741L128.599 123.263L150.194 188.355L128.714 253.409L124.566 251.924L145.645 188.351L124.453 124.741Z" fill="#B69D6D"/>
<path d="M163.415 163.982L167.561 162.503L176.145 188.379L167.607 214.239L163.459 212.753L171.597 188.375L163.415 163.982Z" fill="#B69D6D"/>
</g>
</g>
<defs>
<clipPath id="clip0">
<rect width="559.014" height="560.011" transform="matrix(-0.704586 0.709619 -0.704586 -0.709619 193.268 188.394)" fill="white"/>
</clipPath>
</defs>
</svg>

<svg width="194" height="376" viewBox="0 0 194 376" fill="none" xmlns="http://www.w3.org/2000/svg"><g clip-path="url(#clip0)" fill="#B69D6D" opacity=".07"><path d="M-281.765-126.619l4.145-1.479 12.474 37.331-23.081 69.633 23.204 69.675-23.081 69.633 23.071 69.809-22.947 69.768 23.204 69.675-23.081 69.633 23.204 69.674-12.408 37.308-4.148-1.485 11.74-35.827-22.936-69.674 22.813-69.634-23.07-69.809 23.081-69.633-23.204-69.675 22.947-69.768-22.937-69.674 22.813-69.633-11.803-35.848z"/><path d="M-262.386-146.137l4.146-1.479 19.046 56.872-23.081 69.633 23.204 69.675-23.081 69.633 23.071 69.809-22.947 69.768 23.204 69.675-23.081 69.633 23.204 69.674-18.945 56.838-4.149-1.485 18.278-55.357-23.07-69.809 22.947-69.499-23.071-69.809 23.081-69.633-23.204-69.674 22.947-69.768-23.07-69.54 22.947-69.768-18.376-55.389z"/><path d="M-236.859-173.194l4.148 1.485-3.736 11.314 23.204 69.675-23.08 69.633 23.204 69.674-23.081 69.633 23.07 69.81-22.947 69.768 23.204 69.674-23.081 69.633 23.204 69.675-23.081 69.633 3.756 11.32-4.146 1.479-4.291-12.668 22.947-69.768-23.071-69.81 22.947-69.498-23.07-69.809 23.081-69.633-23.204-69.675 22.947-69.768-23.07-69.54 22.947-69.768-23.071-69.809 4.27-12.66z"/><path d="M-200.768-204.149l4.282 1.351-14.009 42.426 23.204 69.675-23.081 69.633 23.204 69.674-23.08 69.634 23.07 69.809-22.947 69.768 23.204 69.674-23.081 69.633 23.204 69.675-23.081 69.633 14.084 42.452-4.28 1.343-14.486-43.664 22.947-69.768-23.07-69.809 22.947-69.499-23.07-69.809 23.081-69.633-23.204-69.675 22.947-69.768-23.071-69.54 22.947-69.767-23.07-69.81 14.409-43.638z"/><path d="M-181.22-184.462l4.148 1.217-7.471 22.896 23.204 69.675-23.081 69.633 23.204 69.675-23.081 69.633 23.071 69.809-22.947 69.768 23.204 69.675-23.081 69.633 23.204 69.674-23.081 69.633 7.511 22.911-4.145 1.209-8.048-23.989 22.947-69.768-23.07-69.809 22.947-69.499-23.071-69.809 23.081-69.633-23.204-69.675 22.947-69.768-23.07-69.54 22.947-69.767-23.07-69.81 8.005-23.974z"/><path d="M-161.806-164.909l4.282 1.351-1.067 3.233 23.204 69.674-23.081 69.633 23.204 69.675-23.081 69.633 23.07 69.809-22.947 69.768 23.204 69.675-23.081 69.633 23.205 69.675-23.081 69.633 1.073 3.234-4.28 1.344-1.475-4.448 22.947-69.768-23.071-69.809 22.948-69.498-23.071-69.81 23.081-69.633-23.204-69.674 22.947-69.768-23.07-69.54 22.947-69.768-23.071-69.809 1.468-4.445z"/><path d="M-126.592-128.097l4.146-1.478 13.01 38.948-23.081 69.633 23.071 69.809-22.947 69.498 23.07 69.81-22.947 69.768 23.07 69.539-22.947 69.768 23.204 69.675-12.941 38.924-4.148-1.485 12.273-37.443-23.07-69.81 22.947-69.498-23.07-69.809 23.081-69.633-23.204-69.675 22.947-69.768-23.07-69.54 22.947-69.768-12.341-37.465z"/><path d="M-88.166-90.743l4.282 1.351-22.681 68.421 23.07 69.81-22.947 69.498 23.07 69.809-22.946 69.768 23.07 69.54-22.947 69.768 22.801 68.461-4.28 1.344-23.203-69.944 22.947-69.499-23.071-69.809 23.081-69.633-23.204-69.675 22.947-69.768-23.07-69.54 23.08-69.902z"/><path d="M-68.752-71.19l4.282 1.35-16.143 48.892 23.07 69.81-22.947 69.498 23.07 69.809-22.947 69.768 23.07 69.54-22.947 69.768 16.23 48.92-4.28 1.344-16.632-50.403 22.948-69.499-23.07-69.809 23.08-69.633-23.204-69.674 22.947-69.768-23.07-69.54 16.543-50.373z"/><path d="M-49.204-51.503l4.282 1.352-9.74 29.227 23.07 69.809-22.947 69.498 23.07 69.809-22.946 69.768 23.07 69.54-22.947 69.768 9.791 29.245-4.28 1.343-10.193-30.727 22.947-69.498-23.07-69.81 23.08-69.633-23.203-69.674 22.947-69.768-23.07-69.54 10.139-30.709z"/><path d="M-29.79-31.95l4.282 1.351-3.202 9.698 23.07 69.809-22.947 69.499 23.07 69.809-22.946 69.768 23.07 69.539-22.947 69.768 3.219 9.704-4.28 1.343-3.621-11.186 22.947-69.498-23.07-69.809 23.08-69.633-23.204-69.675 22.947-69.768-23.07-69.54 3.602-11.179z"/><path d="M-1.136-1.745l4.28-1.344 17.168 52.02-22.947 69.499 23.07 69.809-22.947 69.768 23.07 69.54-17.076 51.989-4.282-1.351 16.677-50.508-23.07-69.809 23.08-69.633-23.204-69.675L15.63 48.792-1.136-1.745z"/><path d="M37.826 37.495l4.28-1.343 4.158 12.803-22.947 69.498 23.07 69.809L23.44 258.03l23.07 69.54-4.135 12.795-4.282-1.351 3.735-11.313-23.07-69.81 23.08-69.633-23.203-69.674 22.947-69.768-3.756-11.32z"/><path d="M63.264 61.769l4.282 1.351-18.278 55.356 23.07 69.81-22.946 69.768 18.375 55.389-4.28 1.343-18.778-56.871 23.081-69.633-23.204-69.675 18.678-56.838z"/><path d="M82.812 81.457l4.282 1.35L75.22 118.5l23.07 69.809-22.947 69.768 11.938 35.713-4.28 1.344-12.34-37.196 23.081-69.633-23.204-69.675 12.274-37.173z"/><path d="M102.226 101.009l4.282 1.351-5.336 16.163 23.07 69.809-22.947 69.768 5.365 16.172-4.279 1.344-5.768-17.655 23.081-69.633-23.204-69.675 5.736-17.644zm22.227 23.732l4.146-1.478 21.595 65.092-21.48 65.054-4.148-1.485 21.079-63.573-21.192-63.61zm38.962 39.241l4.146-1.479 8.584 25.876-8.538 25.86-4.148-1.486 8.138-24.378-8.182-24.393z"/></g><defs><clipPath id="clip0"><path transform="scale(-.99644 -1.00355) rotate(-45 -323.586 140.266)" fill="#fff" d="M0 0h559.014v560.011H0z"/></clipPath></defs></svg>
